X:649
T:Reel 649
M:4/4
K:Amaj
L:1/8
E,|A,CB,G, A,2B,G,|E,2 (3G,F,E, B,E,G,E,|E,A,A,G, A,B,CD|EGDB, ECDB,|A,2G,A, A,2B,A,|G,A,B,C DB,G,B,|A,2B,G, E,CB,A|GEDB, CA,A,|D|CA,B,A, CA,B,A,|G,A,B,C DFED|CA,B,A, CA,B,A,|G,E,F,G, A,CB,D|CA,B,A, CA,B,A,|G,A,B,C DEFA|GEBG AFGE|FAED CA,A,|E|AGAB GEBA|GEBE cEBG|AEBA GEFA|GEAG B,2CD|EAAG AcBA|GEFE GEBG|AGAF GFEA|GEFD B,A,A,|
